X:1
T:Splendor and Majesty
T:Splendor and Majesty
T:Ralph P. Merrifield & Lenny Smith
T:© 1996, New Jerusalem Music, PO Box 225, Clarksboro, NJ 08020 USA Courtesy of the Cyber Hymnal™
T:© 1996, New Jerusalem Music, PO Box 225, Clarksboro, NJ 08020 USA Courtesy of the Cyber Hymnal™
T:© 1996, New Jerusalem Music, PO Box 225, Clarksboro, NJ 08020 USA Courtesy of the Cyber Hymnal™
T:© 1996, New Jerusalem Music, PO Box 225, Clarksboro, NJ 08020 USA Courtesy of the Cyber Hymnal™
C:Ralph P. Merrifield & Lenny Smith
Z:© 1996, New Jerusalem Music, PO Box 225, Clarksboro, NJ 08020 USA
Z:Courtesy of the Cyber Hymnal™
%%score 1 ( 2 3 ) ( 4 5 )
L:1/8
M:4/4
K:G
V:1 treble 
V:2 treble 
V:3 treble 
V:4 bass 
V:5 bass 
V:1
"^With feeling" z8 | z8 | z8 | z8 |:!mp!"^G" B,B,- B,2 z A, B,D |"^Bm7" F2 F>G FD- D2 | %6
w: ||||Splen- dor * and maj- es-|ty are be- fore You! *|
"^C" E3 E"^Am7" ED CB,- |"^Em/D" B,2 B,C"^D7" A,4 |"^G" B,B, B,2 z A, B,D |"^Bm7" F2 F>G FD- D2 | %10
w: Strength and joy are in Your|* dwel- ling place!|Mer- cy and kind- ness, full|of for- give- ness! Great *|
"^C" E E2 D"^Am7" C4 |"^C" z E ED"^Am7" (3E2 F2 G2 |"^D7" A8- | A8 ||!f!"^Chorus""^G" B4- BD ED | %15
w: are You, Lord, hon-|ored and wor- thy of praise!|Splen-||dor * and maj- es-|
"^Bm7" F2 GE-"^Em" E4 x5 |"^Am7" c4- cE FE |"^C/D" G3 A"^D/C" A4 |"^Bm7" d4- dc BA | %19
w: ty! Hon- or *|and * Glo- ry! Ho-|ly are You,|O, * Lord, Lamb of|
"^Es us 4" A3"^E7" ^G G4 |"^Am7" c4- cB BA |"^D7" A6 D2 |"^G" B4- BD ED | %23
w: God! Your love|ex- * ceeds our fond-|est dreams,|Your * pow- er con-|
"^Bm7" F2 GE-"^Em" E2 B2 x5 |"^Am7" c4- cE FE |"^C/D" G3 A"^D/C" A4 | %26
w: quers ev- 'ry- * thing.|Grace * and truth flow|from Your throne—|
!ff!"^Bm7" d4- dc BA"^Es us 4" | A2"^E7" ^GG- G2 z2 |"^Am7" c4"^D7" F4 |"^Bm7" B8"^Am7" | %30
w: Awe- * some God! Awe-|some God! * *|||
 c4"^D7" F4 |1"^G" G8- x6 |"^C/D" G2 z2 z4 :|2"^G" G8- || G8 |] %35
w: |||||
V:2
 [GB]6 (3[FA][GB][Fd] | [Af]4 [Fd]3 d | [Fd]3 [Ec]/[DB]/ (3[Ec]2 [DB]2 [CA]2 | %3
 [B,G]2 [A,F][CE] [B,D]2 [A,C]2 |: [A,B,]2 [A,B,D]4 [A,B,D]2 | [A,DF]2 [B,DF]2 [B,DF]4 | %6
 [DE]2 [CE]2 [B,E]2 [CE]2 | [B,D]2 [G,B,]2 [E,C]2 [F,A,]2 | [A,B,]2 [A,B,D]4 [A,B,D]2 | %9
 [A,DF]2 [B,DF]2 [B,DF]2 [B,DF]2 | [DE] [CE]2 [B,D] [A,C]4 | %11
 z [G,E] [G,E][F,D] (3[G,CE]2 [A,DF]2 [CEG]2 | [CEA]4 [CEG]4 | [A,DF]4 ED E/F/G/A/ || %14
!f! [GB]2 [G,B,][A,C] [B,D]4 | z2 z x10 | [EGc]4- [EGc]D EF | [CEG]2 C>A [DFA]2 G/A/B/c/ | %18
 [DFd]4- [DFd][Ac] [GB][FA] | [FA]3 [B,^G] [B,G]2 F/G/A/B/ | [EAc]4- [EAc][EB] [EB]A | %21
 [CEA]3 G [CG]F [CF]2 | [GB]2 [G,B,][A,C] [B,D]4 | z2 z x10 | [EGc]4- [EGc]D EF | %25
 [CEG]2 C>A [DFA]2 G/A/B/c/ | [DFd]4- [DFd][Ac] [GB][FA] | [FA]2 [E^G]2 (3[B,G]2 [CA]2 [DB]2 | %28
 [Ec]4 [A,F]4 | B2- BA"^riten." ^G2 =FE | [CGc]4 [A,CF]4 |1 [B,DG]8 x6 | %32
 [G,CE]2"^D" F2"^C/D" [G,CE]2"^D7" [F,CD]2 :|2 [B,DG]4- [B,DG]D GA || [GBg]8 |] %35
V:3
 x8 | x8 | x8 | x8 |: x8 | x8 | x8 | x8 | x8 | x8 | x8 | x8 | x8 | x4 C4 || x8 | %15
 ([B,DF]4 B,)D (E4 G,) B,E | x8 | x8 | x8 | x8 | x8 | x8 | x8 | ([B,DF]4 B,)D (E4 G,) B,D | x8 | %25
 x8 | x8 | x8 | x8 | [D=F]4 [DE]4 | x8 |1 x14 | x8 :|2 x8 || x8 |] %35
V:4
 z D, B,A, A,4 | z F, ED D4 | z G, D2"^rall." z E, G,2 | z D,3 z D,3 |: G,,3 D, G,3 D, | %5
 B,,4- B,,F, A,G, | [C,G,]3 B,, [A,,G,]4 | [D,,D,]3 [D,,D,]- [D,,D,]3 [D,,D,] | G,,3 D, G,3 D, | %9
 B,,4- B,,F, A,G, | [C,G,]2 [C,G,]2 z E, G,A, | [C,,G,,E,]4 [A,,E,]4 | D,,A,, D,E, F,G, A,C | %13
 D,,A,, D,E, F,4 || G,,D, G,4- G,D, | B,,F, F,2 E,,4 x5 | A,,E, A,B, C4 | E,,D,- D,2 C,,C,- C,2 | %18
 B,,F, B,A, B,4 | E,,B,, ^G,6 | A,,E, B,A, A,4 | D,,A,, F,E, E,D, D,2 | G,,D, G,4- G,D, | %23
 B,,F, F,2 E,,4 x5 | A,,E, A,B, C4 | D,,D,- D,2 C,,C,- C,2 | B,,F, B,A, B,4 | E,,B,, ^G,6 | %28
 A,,E, B,A, D,,A,, G,F, | [B,,F,B,]4"^riten." E,,B,, ^G,2 | [A,,E,A,]4 [D,,A,,D,]4 |1!mf! z2 x12 | %32
"^riten." D,, D,2 D, D,, D,3 :|2 G,,D, G,A, B,4 || [G,,D,B,]8 |] %35
V:5
 G,,8 | B,,8 | C,4 A,,4 | D,,4 D,,4 |: x8 | x8 | x8 | x8 | x8 | x8 | x4 [A,,G,]4 | x8 | x8 | x8 || %14
 x8 | x13 | x8 | x8 | x8 | x8 | x8 | x8 | x8 | x13 | x8 | x8 | x8 | x8 | x8 | x8 | x8 |1 %31
 ([G,,D,G,]8 D,)G, A,B, CD | x8 :|2 x8 || x8 |] %35

